X: 109105
Q:"Strathspey."
M: C
L: 1/8
K: Am
uG |\
E<A vA>uB vc>vA uB<uG | D<G vG>uA vB>vd c/B/A/G/ |\
E<A vA>uB vc>vB (c<e) | d<B g>B A2- A :|\
uB |\
c<A d>B e>d c<e | d<B g>B {B}A2- A |]


